X:193
T:Blue Midnight Star
C:David Grier - Arr. M. Stangeland
N:
L:1/8
Q:1/4=210
M:4/4
K:G
"Arranged by""Mike Stangeland"z8 | "Em"d[ee] [ee]g [e2e2] eg | dB dg ed AB | "D"[d2D2] [d2D2] de dB | 
"A7"AE G^c AB GF | "Em"E3B de zB | dB dg ed AB | "D"d2 [d2D2] [d2D2] AB | "D"d^A =AG "Em"E2 de | 
"Em"eB e2 e2 e2 | dB dg ed AB | "D"d2 [d2D2] [d2D2] dB | "A7"AE G^c AB GF | "Em"Ee zB e2 ee | 
dB dg ed A^A | "B7"B2 BB Bc ^dB | BA GF "Em"E2 d[ee] | eB e2 e2 ee | ge dg ed A^A | 
"G"Bd g2 de gA | "A"ab Ab ba g2 | "Em"d[ee] [ee]g [e2e2] e2 | ge dg ed AB | "B7"d2 B2 {^c}^d2 AB | 
d^A =AG "Em"E2 de | eB e2 e2 ed | z2 BA dB A^A | "G"Bd g2 de gd | "D"ab d'd' ba g2 | 
"Am"dE AB BA AB | gg dg ed AB | "D"d2 dd d2 AB | d^A =AG "Em"[E4B,4] | z8 | z8 | 
z8 | z8 | z8 | z8 | z8 | z8 | 
 

